libs/ui/packages/crypto-icons/src/svg/CNY.svg

<svg width="24" height="24" viewBox="0 0 24 24" fill="none">
<path fill-rule="evenodd" clip-rule="evenodd" d="M6.87825 5.625H17.2402V7.06875H6.8775L6.87825 5.625ZM5.72325 9.85575H18.528V11.3145H14.6055V16.1947C14.6055 16.5697 14.7682 16.7572 15.108 16.7572H16.737C16.9148 16.7572 17.0625 16.6425 17.151 16.4257C17.2552 16.1947 17.3288 15.4867 17.3588 14.3175L18.75 14.751C18.6465 16.3822 18.4537 17.3498 18.1875 17.6535C17.9213 17.9415 17.5365 18.1005 17.0175 18.1005H14.6647C13.6132 18.1005 13.0958 17.5665 13.0958 16.512V11.3145H10.9042V11.6032C10.8307 13.437 10.4167 14.9093 9.6615 16.0072C8.92125 17.0175 7.737 17.8118 6.07875 18.375L5.25 17.1045C6.849 16.5555 7.91475 15.8625 8.47725 15.054C9.03975 14.1585 9.33525 13.0177 9.3945 11.6032V11.3145H5.724L5.72325 9.85575Z" fill="#FF4314"/>
</svg>

<svg width="24" height="24" viewBox="0 0 24 24" fill="none"><path fill="#ff4314" fill-rule="evenodd" d="M6.878 5.625H17.24v1.444H6.878zm-1.155 4.23h12.805v1.46h-3.922v4.88c0 .375.162.562.502.562h1.629c.178 0 .326-.115.414-.331.104-.231.178-.94.208-2.108l1.391.433c-.104 1.631-.296 2.599-.562 2.903-.267.288-.651.447-1.17.447h-2.353c-1.052 0-1.57-.534-1.57-1.589v-5.197h-2.19v.288c-.074 1.834-.488 3.306-1.243 4.404-.74 1.01-1.925 1.805-3.583 2.368l-.829-1.27c1.599-.55 2.665-1.242 3.227-2.051.563-.896.858-2.036.918-3.45v-.29H5.724z" clip-rule="evenodd"/></svg>
